public/icons/Selenium.svg

<svg width="256" height="256" viewBox="0 0 256 256" fill="none" xmlns="http://www.w3.org/2000/svg">
<g clip-path="url(#clip0_404_220)">
<rect width="256" height="256" rx="60" fill="#59B943"/>
<path fill-rule="evenodd" clip-rule="evenodd" d="M233.776 -6H256V261H253.934C254.456 261 254.956 260.793 255.326 260.425C255.695 260.057 255.902 259.557 255.902 259.037V33.7359C256.059 33.2777 256.026 32.7762 255.812 32.3417C255.598 31.9073 255.22 31.5755 254.76 31.4193C254.301 31.2631 253.798 31.2953 253.363 31.5088C252.927 31.7224 252.594 32.0997 252.438 32.5579L169.762 125.144C169.526 125.399 169.239 125.602 168.921 125.741C168.603 125.88 168.259 125.951 167.911 125.951C167.564 125.951 167.22 125.88 166.901 125.741C166.583 125.602 166.297 125.399 166.061 125.144L123.857 81.7174C123.499 81.2717 123.304 80.7177 123.304 80.1468C123.304 79.5758 123.499 79.0219 123.857 78.5762L137.793 60.75C138.027 60.4257 138.334 60.1615 138.69 59.9793C139.046 59.7971 139.441 59.702 139.841 59.702C140.241 59.702 140.635 59.7971 140.991 59.9793C141.347 60.1615 141.655 60.4257 141.888 60.75L165.51 86.8218C165.746 87.1025 166.041 87.3282 166.375 87.4831C166.708 87.6379 167.071 87.7182 167.439 87.7182C167.806 87.7182 168.17 87.6379 168.503 87.4831C168.836 87.3282 169.131 87.1025 169.368 86.8218L235.194 -3.17294C235.377 -3.4389 235.485 -3.74892 235.508 -4.07077C235.53 -4.39263 235.465 -4.71458 235.321 -5.00314C235.176 -5.29171 234.956 -5.53636 234.685 -5.71167C234.413 -5.88697 234.1 -5.98653 233.776 -6ZM1.96848 -6H0V-4.03676C0 -4.55745 0.207393 -5.0568 0.576554 -5.42498C0.945715 -5.79316 1.4464 -6 1.96848 -6ZM0 259.037V261H1.96848C1.4464 261 0.945715 260.793 0.576554 260.425C0.207393 260.057 0 259.557 0 259.037ZM168.968 163.04C164.08 162.892 159.315 164.577 155.619 167.761C151.923 170.944 149.568 175.392 149.02 180.222C148.996 180.316 148.994 180.414 149.014 180.508C149.034 180.603 149.076 180.691 149.137 180.767C149.198 180.842 149.275 180.902 149.364 180.943C149.452 180.983 149.549 181.003 149.646 181H188.369C188.458 181 188.547 180.982 188.628 180.946C188.71 180.91 188.783 180.857 188.842 180.791C188.901 180.725 188.946 180.647 188.972 180.562C188.998 180.477 189.006 180.388 188.995 180.3C188.614 175.383 186.298 170.813 182.549 167.581C178.8 164.35 173.92 162.718 168.968 163.04ZM26.1414 216.003C38.5828 226.905 54.7968 232.54 71.3376 231.709H71.2589C101.101 231.709 115.51 216.474 115.51 196.527C115.51 171.51 92.231 165.937 73.8707 161.541C61.9159 158.678 52.0466 156.316 52.0466 149.41C52.0466 142.813 57.7158 138.337 67.7944 138.337C78.7663 138.235 89.4405 141.894 98.0302 148.703C98.2841 148.92 98.5799 149.082 98.8994 149.18C99.2188 149.278 99.555 149.31 99.8872 149.273C100.219 149.236 100.54 149.132 100.831 148.966C101.121 148.801 101.373 148.577 101.573 148.31L111.258 134.882C111.696 134.428 111.941 133.823 111.941 133.193C111.941 132.564 111.696 131.959 111.258 131.505C99.6091 122.062 84.9224 117.152 69.9203 117.684C43.7789 117.684 28.0311 132.919 28.0311 151.216C28.0311 175.818 50.4299 181.123 68.6468 185.437C81.1317 188.394 91.6523 190.885 91.6523 198.805C91.6523 205.087 85.3532 211.055 72.44 211.055C60.1792 211.093 48.3607 206.49 39.3696 198.176C39.0915 198.007 38.7823 197.896 38.4602 197.847C38.1381 197.799 37.8096 197.816 37.4941 197.897C37.1786 197.977 36.8824 198.12 36.623 198.316C36.3636 198.513 36.1463 198.759 35.9838 199.04L26.1414 212.783C25.7483 213.228 25.5315 213.8 25.5315 214.393C25.5315 214.986 25.7483 215.558 26.1414 216.003ZM209.931 194.319C210.038 194.047 210.087 193.756 210.076 193.465L209.997 190.952C209.997 164.173 193.383 145.876 168.895 145.876C163.245 145.778 157.633 146.824 152.398 148.95C147.164 151.076 142.417 154.239 138.443 158.246C134.468 162.254 131.35 167.024 129.276 172.267C127.202 177.51 126.216 183.119 126.376 188.753C126.148 194.526 127.132 200.282 129.264 205.654C131.397 211.025 134.632 215.893 138.761 219.945C142.89 223.997 147.823 227.143 153.243 229.182C158.663 231.222 164.45 232.109 170.234 231.787C181.812 232.078 193.162 228.544 202.517 221.735C202.942 221.395 203.225 220.91 203.313 220.373C203.4 219.836 203.285 219.287 202.989 218.83L195.903 208.542C195.739 208.29 195.523 208.076 195.27 207.913C195.017 207.751 194.732 207.644 194.435 207.599C194.137 207.555 193.833 207.574 193.543 207.655C193.253 207.736 192.984 207.878 192.753 208.071C186.841 212.219 179.823 214.515 172.596 214.668C167.089 215.121 161.61 213.503 157.239 210.132C152.867 206.76 149.919 201.879 148.974 196.449C148.963 196.356 148.971 196.262 148.997 196.172C149.023 196.082 149.066 195.998 149.125 195.925C149.183 195.852 149.256 195.791 149.338 195.746C149.421 195.701 149.511 195.673 149.604 195.664H207.871C208.164 195.675 208.455 195.625 208.728 195.519C209 195.412 209.248 195.25 209.455 195.044C209.662 194.838 209.824 194.591 209.931 194.319Z" fill="white"/>
</g>
<defs>
<clipPath id="clip0_404_220">
<rect width="256" height="256" rx="60" fill="white"/>
</clipPath>
</defs>
</svg>

<svg xmlns="http://www.w3.org/2000/svg" width="256" height="256" fill="none"><g clip-path="url(#a)"><rect width="256" height="256" fill="#59B943" rx="60"/><path fill="#fff" fill-rule="evenodd" d="M233.776-6H256v267h-2.066a1.961 1.961 0 0 0 1.968-1.963V33.736a1.827 1.827 0 0 0-1.142-2.317 1.833 1.833 0 0 0-2.322 1.139l-82.676 92.586a2.523 2.523 0 0 1-3.701 0l-42.204-43.427a2.51 2.51 0 0 1 0-3.14l13.936-17.827a2.524 2.524 0 0 1 4.095 0l23.622 26.072a2.524 2.524 0 0 0 3.858 0l65.826-89.995c.183-.266.291-.576.314-.898a1.81 1.81 0 0 0-.823-1.64 1.8 1.8 0 0 0-.909-.289M1.968-6H0v1.963c0-.52.207-1.02.577-1.388C.946-5.793 1.447-6 1.968-6M0 259.037V261h1.968a1.97 1.97 0 0 1-1.391-.575A1.96 1.96 0 0 1 0 259.037m168.968-95.997a19.55 19.55 0 0 0-13.349 4.721 19.32 19.32 0 0 0-6.599 12.461.63.63 0 0 0 .117.545.63.63 0 0 0 .509.233h38.723a.64.64 0 0 0 .473-.209.61.61 0 0 0 .153-.491 18.7 18.7 0 0 0-6.446-12.719 18.93 18.93 0 0 0-13.581-4.541M26.141 216.003a63.73 63.73 0 0 0 45.197 15.706h-.08c29.843 0 44.252-15.235 44.252-35.182 0-25.017-23.279-30.59-41.64-34.986-11.954-2.863-21.823-5.225-21.823-12.131 0-6.597 5.669-11.073 15.747-11.073a47.96 47.96 0 0 1 30.236 10.366 2.44 2.44 0 0 0 1.857.57 2.45 2.45 0 0 0 1.686-.963l9.685-13.428a2.43 2.43 0 0 0 0-3.377 62.15 62.15 0 0 0-41.338-13.821c-26.141 0-41.889 15.235-41.889 33.532 0 24.602 22.399 29.907 40.616 34.221 12.485 2.957 23.005 5.448 23.005 13.368 0 6.282-6.299 12.25-19.212 12.25a48.5 48.5 0 0 1-33.07-12.879 2.44 2.44 0 0 0-2.747.14c-.26.197-.477.443-.64.724l-9.842 13.743a2.43 2.43 0 0 0 0 3.22m183.79-21.684c.107-.272.156-.563.145-.854l-.079-2.513c0-26.779-16.614-45.076-41.102-45.076a41.9 41.9 0 0 0-16.497 3.074 41.8 41.8 0 0 0-13.955 9.296 41.7 41.7 0 0 0-9.167 14.021 41.6 41.6 0 0 0-2.9 16.486 41.4 41.4 0 0 0 2.888 16.901 41.5 41.5 0 0 0 9.497 14.291 41.6 41.6 0 0 0 14.482 9.237 41.7 41.7 0 0 0 16.991 2.605 52.6 52.6 0 0 0 32.283-10.052 2.191 2.191 0 0 0 .472-2.905l-7.086-10.288a2.13 2.13 0 0 0-2.36-.887c-.29.081-.559.223-.79.416a36.44 36.44 0 0 1-20.157 6.597 22.17 22.17 0 0 1-15.357-4.536 22.06 22.06 0 0 1-8.265-13.683.7.7 0 0 1 .151-.524.7.7 0 0 1 .479-.261h58.267c.293.011.584-.039.857-.145a2.115 2.115 0 0 0 1.203-1.2" clip-rule="evenodd"/></g><defs><clipPath id="a"><rect width="256" height="256" fill="#fff" rx="60"/></clipPath></defs></svg>
